assets/i/icons/gradient.svg

<?xml version="1.0" encoding="utf-8"?>
<!-- Generated by IcoMoon.io -->
<!DOCTYPE svg PUBLIC "-//W3C//DTD SVG 1.1//EN" "http://www.w3.org/Graphics/SVG/1.1/DTD/svg11.dtd">
<svg version="1.1" xmlns="http://www.w3.org/2000/svg" xmlns:xlink="http://www.w3.org/1999/xlink" width="20" height="20" viewBox="0 0 20 20">
<path d="M18.5 20h-17c-0.827 0-1.5-0.673-1.5-1.5v-17c0-0.827 0.673-1.5 1.5-1.5h17c0.827 0 1.5 0.673 1.5 1.5v17c0 0.827-0.673 1.5-1.5 1.5zM1.5 1c-0.276 0-0.5 0.224-0.5 0.5v17c0 0.276 0.224 0.5 0.5 0.5h17c0.276 0 0.5-0.224 0.5-0.5v-17c0-0.276-0.224-0.5-0.5-0.5h-17z" fill="#000000"></path>
<path d="M5 2.5c0 0.276-0.224 0.5-0.5 0.5s-0.5-0.224-0.5-0.5c0-0.276 0.224-0.5 0.5-0.5s0.5 0.224 0.5 0.5z" fill="#000000"></path>
<path d="M5 3.5c0 0.276-0.224 0.5-0.5 0.5s-0.5-0.224-0.5-0.5c0-0.276 0.224-0.5 0.5-0.5s0.5 0.224 0.5 0.5z" fill="#000000"></path>
<path d="M5 4.5c0 0.276-0.224 0.5-0.5 0.5s-0.5-0.224-0.5-0.5c0-0.276 0.224-0.5 0.5-0.5s0.5 0.224 0.5 0.5z" fill="#000000"></path>
<path d="M5 5.5c0 0.276-0.224 0.5-0.5 0.5s-0.5-0.224-0.5-0.5c0-0.276 0.224-0.5 0.5-0.5s0.5 0.224 0.5 0.5z" fill="#000000"></path>
<path d="M5 6.5c0 0.276-0.224 0.5-0.5 0.5s-0.5-0.224-0.5-0.5c0-0.276 0.224-0.5 0.5-0.5s0.5 0.224 0.5 0.5z" fill="#000000"></path>
<path d="M5 7.5c0 0.276-0.224 0.5-0.5 0.5s-0.5-0.224-0.5-0.5c0-0.276 0.224-0.5 0.5-0.5s0.5 0.224 0.5 0.5z" fill="#000000"></path>
<path d="M5 8.5c0 0.276-0.224 0.5-0.5 0.5s-0.5-0.224-0.5-0.5c0-0.276 0.224-0.5 0.5-0.5s0.5 0.224 0.5 0.5z" fill="#000000"></path>
<path d="M5 9.5c0 0.276-0.224 0.5-0.5 0.5s-0.5-0.224-0.5-0.5c0-0.276 0.224-0.5 0.5-0.5s0.5 0.224 0.5 0.5z" fill="#000000"></path>
<path d="M5 10.5c0 0.276-0.224 0.5-0.5 0.5s-0.5-0.224-0.5-0.5c0-0.276 0.224-0.5 0.5-0.5s0.5 0.224 0.5 0.5z" fill="#000000"></path>
<path d="M5 11.5c0 0.276-0.224 0.5-0.5 0.5s-0.5-0.224-0.5-0.5c0-0.276 0.224-0.5 0.5-0.5s0.5 0.224 0.5 0.5z" fill="#000000"></path>
<path d="M5 12.5c0 0.276-0.224 0.5-0.5 0.5s-0.5-0.224-0.5-0.5c0-0.276 0.224-0.5 0.5-0.5s0.5 0.224 0.5 0.5z" fill="#000000"></path>
<path d="M5 13.5c0 0.276-0.224 0.5-0.5 0.5s-0.5-0.224-0.5-0.5c0-0.276 0.224-0.5 0.5-0.5s0.5 0.224 0.5 0.5z" fill="#000000"></path>
<path d="M5 14.5c0 0.276-0.224 0.5-0.5 0.5s-0.5-0.224-0.5-0.5c0-0.276 0.224-0.5 0.5-0.5s0.5 0.224 0.5 0.5z" fill="#000000"></path>
<path d="M5 15.5c0 0.276-0.224 0.5-0.5 0.5s-0.5-0.224-0.5-0.5c0-0.276 0.224-0.5 0.5-0.5s0.5 0.224 0.5 0.5z" fill="#000000"></path>
<path d="M5 16.5c0 0.276-0.224 0.5-0.5 0.5s-0.5-0.224-0.5-0.5c0-0.276 0.224-0.5 0.5-0.5s0.5 0.224 0.5 0.5z" fill="#000000"></path>
<path d="M6 2.5c0 0.276-0.224 0.5-0.5 0.5s-0.5-0.224-0.5-0.5c0-0.276 0.224-0.5 0.5-0.5s0.5 0.224 0.5 0.5z" fill="#000000"></path>
<path d="M6 4.5c0 0.276-0.224 0.5-0.5 0.5s-0.5-0.224-0.5-0.5c0-0.276 0.224-0.5 0.5-0.5s0.5 0.224 0.5 0.5z" fill="#000000"></path>
<path d="M6 6.5c0 0.276-0.224 0.5-0.5 0.5s-0.5-0.224-0.5-0.5c0-0.276 0.224-0.5 0.5-0.5s0.5 0.224 0.5 0.5z" fill="#000000"></path>
<path d="M6 8.5c0 0.276-0.224 0.5-0.5 0.5s-0.5-0.224-0.5-0.5c0-0.276 0.224-0.5 0.5-0.5s0.5 0.224 0.5 0.5z" fill="#000000"></path>
<path d="M6 10.5c0 0.276-0.224 0.5-0.5 0.5s-0.5-0.224-0.5-0.5c0-0.276 0.224-0.5 0.5-0.5s0.5 0.224 0.5 0.5z" fill="#000000"></path>
<path d="M6 12.5c0 0.276-0.224 0.5-0.5 0.5s-0.5-0.224-0.5-0.5c0-0.276 0.224-0.5 0.5-0.5s0.5 0.224 0.5 0.5z" fill="#000000"></path>
<path d="M6 14.5c0 0.276-0.224 0.5-0.5 0.5s-0.5-0.224-0.5-0.5c0-0.276 0.224-0.5 0.5-0.5s0.5 0.224 0.5 0.5z" fill="#000000"></path>
<path d="M6 16.5c0 0.276-0.224 0.5-0.5 0.5s-0.5-0.224-0.5-0.5c0-0.276 0.224-0.5 0.5-0.5s0.5 0.224 0.5 0.5z" fill="#000000"></path>
<path d="M7 3.5c0 0.276-0.224 0.5-0.5 0.5s-0.5-0.224-0.5-0.5c0-0.276 0.224-0.5 0.5-0.5s0.5 0.224 0.5 0.5z" fill="#000000"></path>
<path d="M7 5.5c0 0.276-0.224 0.5-0.5 0.5s-0.5-0.224-0.5-0.5c0-0.276 0.224-0.5 0.5-0.5s0.5 0.224 0.5 0.5z" fill="#000000"></path>
<path d="M7 7.5c0 0.276-0.224 0.5-0.5 0.5s-0.5-0.224-0.5-0.5c0-0.276 0.224-0.5 0.5-0.5s0.5 0.224 0.5 0.5z" fill="#000000"></path>
<path d="M7 9.5c0 0.276-0.224 0.5-0.5 0.5s-0.5-0.224-0.5-0.5c0-0.276 0.224-0.5 0.5-0.5s0.5 0.224 0.5 0.5z" fill="#000000"></path>
<path d="M7 11.5c0 0.276-0.224 0.5-0.5 0.5s-0.5-0.224-0.5-0.5c0-0.276 0.224-0.5 0.5-0.5s0.5 0.224 0.5 0.5z" fill="#000000"></path>
<path d="M7 13.5c0 0.276-0.224 0.5-0.5 0.5s-0.5-0.224-0.5-0.5c0-0.276 0.224-0.5 0.5-0.5s0.5 0.224 0.5 0.5z" fill="#000000"></path>
<path d="M7 15.5c0 0.276-0.224 0.5-0.5 0.5s-0.5-0.224-0.5-0.5c0-0.276 0.224-0.5 0.5-0.5s0.5 0.224 0.5 0.5z" fill="#000000"></path>
<path d="M7 17.5c0 0.276-0.224 0.5-0.5 0.5s-0.5-0.224-0.5-0.5c0-0.276 0.224-0.5 0.5-0.5s0.5 0.224 0.5 0.5z" fill="#000000"></path>
<path d="M9 2.5c0 0.276-0.224 0.5-0.5 0.5s-0.5-0.224-0.5-0.5c0-0.276 0.224-0.5 0.5-0.5s0.5 0.224 0.5 0.5z" fill="#000000"></path>
<path d="M9 4.5c0 0.276-0.224 0.5-0.5 0.5s-0.5-0.224-0.5-0.5c0-0.276 0.224-0.5 0.5-0.5s0.5 0.224 0.5 0.5z" fill="#000000"></path>
<path d="M9 6.5c0 0.276-0.224 0.5-0.5 0.5s-0.5-0.224-0.5-0.5c0-0.276 0.224-0.5 0.5-0.5s0.5 0.224 0.5 0.5z" fill="#000000"></path>
<path d="M9 8.5c0 0.276-0.224 0.5-0.5 0.5s-0.5-0.224-0.5-0.5c0-0.276 0.224-0.5 0.5-0.5s0.5 0.224 0.5 0.5z" fill="#000000"></path>
<path d="M9 10.5c0 0.276-0.224 0.5-0.5 0.5s-0.5-0.224-0.5-0.5c0-0.276 0.224-0.5 0.5-0.5s0.5 0.224 0.5 0.5z" fill="#000000"></path>
<path d="M9 12.5c0 0.276-0.224 0.5-0.5 0.5s-0.5-0.224-0.5-0.5c0-0.276 0.224-0.5 0.5-0.5s0.5 0.224 0.5 0.5z" fill="#000000"></path>
<path d="M9 14.5c0 0.276-0.224 0.5-0.5 0.5s-0.5-0.224-0.5-0.5c0-0.276 0.224-0.5 0.5-0.5s0.5 0.224 0.5 0.5z" fill="#000000"></path>
<path d="M9 16.5c0 0.276-0.224 0.5-0.5 0.5s-0.5-0.224-0.5-0.5c0-0.276 0.224-0.5 0.5-0.5s0.5 0.224 0.5 0.5z" fill="#000000"></path>
<path d="M11 3.5c0 0.276-0.224 0.5-0.5 0.5s-0.5-0.224-0.5-0.5c0-0.276 0.224-0.5 0.5-0.5s0.5 0.224 0.5 0.5z" fill="#000000"></path>
<path d="M11 5.5c0 0.276-0.224 0.5-0.5 0.5s-0.5-0.224-0.5-0.5c0-0.276 0.224-0.5 0.5-0.5s0.5 0.224 0.5 0.5z" fill="#000000"></path>
<path d="M11 7.5c0 0.276-0.224 0.5-0.5 0.5s-0.5-0.224-0.5-0.5c0-0.276 0.224-0.5 0.5-0.5s0.5 0.224 0.5 0.5z" fill="#000000"></path>
<path d="M11 9.5c0 0.276-0.224 0.5-0.5 0.5s-0.5-0.224-0.5-0.5c0-0.276 0.224-0.5 0.5-0.5s0.5 0.224 0.5 0.5z" fill="#000000"></path>
<path d="M11 11.5c0 0.276-0.224 0.5-0.5 0.5s-0.5-0.224-0.5-0.5c0-0.276 0.224-0.5 0.5-0.5s0.5 0.224 0.5 0.5z" fill="#000000"></path>
<path d="M11 13.5c0 0.276-0.224 0.5-0.5 0.5s-0.5-0.224-0.5-0.5c0-0.276 0.224-0.5 0.5-0.5s0.5 0.224 0.5 0.5z" fill="#000000"></path>
<path d="M11 15.5c0 0.276-0.224 0.5-0.5 0.5s-0.5-0.224-0.5-0.5c0-0.276 0.224-0.5 0.5-0.5s0.5 0.224 0.5 0.5z" fill="#000000"></path>
<path d="M11 17.5c0 0.276-0.224 0.5-0.5 0.5s-0.5-0.224-0.5-0.5c0-0.276 0.224-0.5 0.5-0.5s0.5 0.224 0.5 0.5z" fill="#000000"></path>
<path d="M5 17.5c0 0.276-0.224 0.5-0.5 0.5s-0.5-0.224-0.5-0.5c0-0.276 0.224-0.5 0.5-0.5s0.5 0.224 0.5 0.5z" fill="#000000"></path>
<path d="M4 2.5c0 0.276-0.224 0.5-0.5 0.5s-0.5-0.224-0.5-0.5c0-0.276 0.224-0.5 0.5-0.5s0.5 0.224 0.5 0.5z" fill="#000000"></path>
<path d="M4 3.5c0 0.276-0.224 0.5-0.5 0.5s-0.5-0.224-0.5-0.5c0-0.276 0.224-0.5 0.5-0.5s0.5 0.224 0.5 0.5z" fill="#000000"></path>
<path d="M4 4.5c0 0.276-0.224 0.5-0.5 0.5s-0.5-0.224-0.5-0.5c0-0.276 0.224-0.5 0.5-0.5s0.5 0.224 0.5 0.5z" fill="#000000"></path>
<path d="M4 5.5c0 0.276-0.224 0.5-0.5 0.5s-0.5-0.224-0.5-0.5c0-0.276 0.224-0.5 0.5-0.5s0.5 0.224 0.5 0.5z" fill="#000000"></path>
<path d="M4 6.5c0 0.276-0.224 0.5-0.5 0.5s-0.5-0.224-0.5-0.5c0-0.276 0.224-0.5 0.5-0.5s0.5 0.224 0.5 0.5z" fill="#000000"></path>
<path d="M4 7.5c0 0.276-0.224 0.5-0.5 0.5s-0.5-0.224-0.5-0.5c0-0.276 0.224-0.5 0.5-0.5s0.5 0.224 0.5 0.5z" fill="#000000"></path>
<path d="M4 8.5c0 0.276-0.224 0.5-0.5 0.5s-0.5-0.224-0.5-0.5c0-0.276 0.224-0.5 0.5-0.5s0.5 0.224 0.5 0.5z" fill="#000000"></path>
<path d="M4 9.5c0 0.276-0.224 0.5-0.5 0.5s-0.5-0.224-0.5-0.5c0-0.276 0.224-0.5 0.5-0.5s0.5 0.224 0.5 0.5z" fill="#000000"></path>
<path d="M4 10.5c0 0.276-0.224 0.5-0.5 0.5s-0.5-0.224-0.5-0.5c0-0.276 0.224-0.5 0.5-0.5s0.5 0.224 0.5 0.5z" fill="#000000"></path>
<path d="M4 11.5c0 0.276-0.224 0.5-0.5 0.5s-0.5-0.224-0.5-0.5c0-0.276 0.224-0.5 0.5-0.5s0.5 0.224 0.5 0.5z" fill="#000000"></path>
<path d="M4 12.5c0 0.276-0.224 0.5-0.5 0.5s-0.5-0.224-0.5-0.5c0-0.276 0.224-0.5 0.5-0.5s0.5 0.224 0.5 0.5z" fill="#000000"></path>
<path d="M4 13.5c0 0.276-0.224 0.5-0.5 0.5s-0.5-0.224-0.5-0.5c0-0.276 0.224-0.5 0.5-0.5s0.5 0.224 0.5 0.5z" fill="#000000"></path>
<path d="M4 14.5c0 0.276-0.224 0.5-0.5 0.5s-0.5-0.224-0.5-0.5c0-0.276 0.224-0.5 0.5-0.5s0.5 0.224 0.5 0.5z" fill="#000000"></path>
<path d="M4 15.5c0 0.276-0.224 0.5-0.5 0.5s-0.5-0.224-0.5-0.5c0-0.276 0.224-0.5 0.5-0.5s0.5 0.224 0.5 0.5z" fill="#000000"></path>
<path d="M4 16.5c0 0.276-0.224 0.5-0.5 0.5s-0.5-0.224-0.5-0.5c0-0.276 0.224-0.5 0.5-0.5s0.5 0.224 0.5 0.5z" fill="#000000"></path>
<path d="M4 17.5c0 0.276-0.224 0.5-0.5 0.5s-0.5-0.224-0.5-0.5c0-0.276 0.224-0.5 0.5-0.5s0.5 0.224 0.5 0.5z" fill="#000000"></path>
<path d="M13 2.5c0 0.276-0.224 0.5-0.5 0.5s-0.5-0.224-0.5-0.5c0-0.276 0.224-0.5 0.5-0.5s0.5 0.224 0.5 0.5z" fill="#000000"></path>
<path d="M13 6.5c0 0.276-0.224 0.5-0.5 0.5s-0.5-0.224-0.5-0.5c0-0.276 0.224-0.5 0.5-0.5s0.5 0.224 0.5 0.5z" fill="#000000"></path>
<path d="M13 10.5c0 0.276-0.224 0.5-0.5 0.5s-0.5-0.224-0.5-0.5c0-0.276 0.224-0.5 0.5-0.5s0.5 0.224 0.5 0.5z" fill="#000000"></path>
<path d="M13 14.5c0 0.276-0.224 0.5-0.5 0.5s-0.5-0.224-0.5-0.5c0-0.276 0.224-0.5 0.5-0.5s0.5 0.224 0.5 0.5z" fill="#000000"></path>
<path d="M15 4.5c0 0.276-0.224 0.5-0.5 0.5s-0.5-0.224-0.5-0.5c0-0.276 0.224-0.5 0.5-0.5s0.5 0.224 0.5 0.5z" fill="#000000"></path>
<path d="M15 8.5c0 0.276-0.224 0.5-0.5 0.5s-0.5-0.224-0.5-0.5c0-0.276 0.224-0.5 0.5-0.5s0.5 0.224 0.5 0.5z" fill="#000000"></path>
<path d="M15 12.5c0 0.276-0.224 0.5-0.5 0.5s-0.5-0.224-0.5-0.5c0-0.276 0.224-0.5 0.5-0.5s0.5 0.224 0.5 0.5z" fill="#000000"></path>
<path d="M15 16.5c0 0.276-0.224 0.5-0.5 0.5s-0.5-0.224-0.5-0.5c0-0.276 0.224-0.5 0.5-0.5s0.5 0.224 0.5 0.5z" fill="#000000"></path>
<path d="M2.5 18c-0.276 0-0.5-0.224-0.5-0.5v-15c0-0.276 0.224-0.5 0.5-0.5s0.5 0.224 0.5 0.5v15c0 0.276-0.224 0.5-0.5 0.5z" fill="#000000"></path>
</svg>

<?xml version="1.0" encoding="utf-8"?>
<!-- Generator: Adobe Illustrator 15.0.2, SVG Export Plug-In  -->
<!DOCTYPE svg PUBLIC "-//W3C//DTD SVG 1.1//EN" "http://www.w3.org/Graphics/SVG/1.1/DTD/svg11.dtd" [
	<!ENTITY ns_flows "http://ns.adobe.com/Flows/1.0/">
]>
<svg version="1.1"
	 xmlns="http://www.w3.org/2000/svg" xmlns:xlink="http://www.w3.org/1999/xlink" xmlns:a="http://ns.adobe.com/AdobeSVGViewerExtensions/3.0/"
	 x="0px" y="0px" width="20px" height="20px" viewBox="0 0 20 20" enable-background="new 0 0 20 20" xml:space="preserve">
<defs>
</defs>
<path fill="#010202" d="M18.5,20h-17C0.7,20,0,19.3,0,18.5v-17C0,0.7,0.7,0,1.5,0h17C19.3,0,20,0.7,20,1.5v17
	C20,19.3,19.3,20,18.5,20z M1.5,1C1.2,1,1,1.2,1,1.5v17C1,18.8,1.2,19,1.5,19h17c0.3,0,0.5-0.2,0.5-0.5v-17C19,1.2,18.8,1,18.5,1
	H1.5z"/>
<path fill="#010202" d="M5,2.5C5,2.8,4.8,3,4.5,3S4,2.8,4,2.5S4.2,2,4.5,2S5,2.2,5,2.5z"/>
<path fill="#010202" d="M5,3.5C5,3.8,4.8,4,4.5,4S4,3.8,4,3.5S4.2,3,4.5,3S5,3.2,5,3.5z"/>
<path fill="#010202" d="M5,4.5C5,4.8,4.8,5,4.5,5S4,4.8,4,4.5S4.2,4,4.5,4S5,4.2,5,4.5z"/>
<path fill="#010202" d="M5,5.5C5,5.8,4.8,6,4.5,6S4,5.8,4,5.5S4.2,5,4.5,5S5,5.2,5,5.5z"/>
<path fill="#010202" d="M5,6.5C5,6.8,4.8,7,4.5,7S4,6.8,4,6.5S4.2,6,4.5,6S5,6.2,5,6.5z"/>
<path fill="#010202" d="M5,7.5C5,7.8,4.8,8,4.5,8S4,7.8,4,7.5S4.2,7,4.5,7S5,7.2,5,7.5z"/>
<path fill="#010202" d="M5,8.5C5,8.8,4.8,9,4.5,9S4,8.8,4,8.5S4.2,8,4.5,8S5,8.2,5,8.5z"/>
<path fill="#010202" d="M5,9.5C5,9.8,4.8,10,4.5,10S4,9.8,4,9.5S4.2,9,4.5,9S5,9.2,5,9.5z"/>
<path fill="#010202" d="M5,10.5C5,10.8,4.8,11,4.5,11S4,10.8,4,10.5C4,10.2,4.2,10,4.5,10S5,10.2,5,10.5z"/>
<path fill="#010202" d="M5,11.5C5,11.8,4.8,12,4.5,12S4,11.8,4,11.5S4.2,11,4.5,11S5,11.2,5,11.5z"/>
<path fill="#010202" d="M5,12.5C5,12.8,4.8,13,4.5,13S4,12.8,4,12.5S4.2,12,4.5,12S5,12.2,5,12.5z"/>
<path fill="#010202" d="M5,13.5C5,13.8,4.8,14,4.5,14S4,13.8,4,13.5S4.2,13,4.5,13S5,13.2,5,13.5z"/>
<path fill="#010202" d="M5,14.5C5,14.8,4.8,15,4.5,15S4,14.8,4,14.5S4.2,14,4.5,14S5,14.2,5,14.5z"/>
<path fill="#010202" d="M5,15.5C5,15.8,4.8,16,4.5,16S4,15.8,4,15.5S4.2,15,4.5,15S5,15.2,5,15.5z"/>
<path fill="#010202" d="M5,16.5C5,16.8,4.8,17,4.5,17S4,16.8,4,16.5S4.2,16,4.5,16S5,16.2,5,16.5z"/>
<path fill="#010202" d="M6,2.5C6,2.8,5.8,3,5.5,3S5,2.8,5,2.5S5.2,2,5.5,2S6,2.2,6,2.5z"/>
<path fill="#010202" d="M6,4.5C6,4.8,5.8,5,5.5,5S5,4.8,5,4.5S5.2,4,5.5,4S6,4.2,6,4.5z"/>
<path fill="#010202" d="M6,6.5C6,6.8,5.8,7,5.5,7S5,6.8,5,6.5S5.2,6,5.5,6S6,6.2,6,6.5z"/>
<path fill="#010202" d="M6,8.5C6,8.8,5.8,9,5.5,9S5,8.8,5,8.5S5.2,8,5.5,8S6,8.2,6,8.5z"/>
<path fill="#010202" d="M6,10.5C6,10.8,5.8,11,5.5,11S5,10.8,5,10.5C5,10.2,5.2,10,5.5,10S6,10.2,6,10.5z"/>
<path fill="#010202" d="M6,12.5C6,12.8,5.8,13,5.5,13S5,12.8,5,12.5S5.2,12,5.5,12S6,12.2,6,12.5z"/>
<path fill="#010202" d="M6,14.5C6,14.8,5.8,15,5.5,15S5,14.8,5,14.5S5.2,14,5.5,14S6,14.2,6,14.5z"/>
<path fill="#010202" d="M6,16.5C6,16.8,5.8,17,5.5,17S5,16.8,5,16.5S5.2,16,5.5,16S6,16.2,6,16.5z"/>
<path fill="#010202" d="M7,3.5C7,3.8,6.8,4,6.5,4S6,3.8,6,3.5S6.2,3,6.5,3S7,3.2,7,3.5z"/>
<path fill="#010202" d="M7,5.5C7,5.8,6.8,6,6.5,6S6,5.8,6,5.5S6.2,5,6.5,5S7,5.2,7,5.5z"/>
<path fill="#010202" d="M7,7.5C7,7.8,6.8,8,6.5,8S6,7.8,6,7.5S6.2,7,6.5,7S7,7.2,7,7.5z"/>
<path fill="#010202" d="M7,9.5C7,9.8,6.8,10,6.5,10S6,9.8,6,9.5S6.2,9,6.5,9S7,9.2,7,9.5z"/>
<path fill="#010202" d="M7,11.5C7,11.8,6.8,12,6.5,12S6,11.8,6,11.5S6.2,11,6.5,11S7,11.2,7,11.5z"/>
<path fill="#010202" d="M7,13.5C7,13.8,6.8,14,6.5,14S6,13.8,6,13.5S6.2,13,6.5,13S7,13.2,7,13.5z"/>
<path fill="#010202" d="M7,15.5C7,15.8,6.8,16,6.5,16S6,15.8,6,15.5S6.2,15,6.5,15S7,15.2,7,15.5z"/>
<path fill="#010202" d="M7,17.5C7,17.8,6.8,18,6.5,18S6,17.8,6,17.5S6.2,17,6.5,17S7,17.2,7,17.5z"/>
<path fill="#010202" d="M9,2.5C9,2.8,8.8,3,8.5,3S8,2.8,8,2.5S8.2,2,8.5,2S9,2.2,9,2.5z"/>
<path fill="#010202" d="M9,4.5C9,4.8,8.8,5,8.5,5S8,4.8,8,4.5S8.2,4,8.5,4S9,4.2,9,4.5z"/>
<path fill="#010202" d="M9,6.5C9,6.8,8.8,7,8.5,7S8,6.8,8,6.5S8.2,6,8.5,6S9,6.2,9,6.5z"/>
<path fill="#010202" d="M9,8.5C9,8.8,8.8,9,8.5,9S8,8.8,8,8.5S8.2,8,8.5,8S9,8.2,9,8.5z"/>
<path fill="#010202" d="M9,10.5C9,10.8,8.8,11,8.5,11S8,10.8,8,10.5C8,10.2,8.2,10,8.5,10S9,10.2,9,10.5z"/>
<path fill="#010202" d="M9,12.5C9,12.8,8.8,13,8.5,13S8,12.8,8,12.5S8.2,12,8.5,12S9,12.2,9,12.5z"/>
<path fill="#010202" d="M9,14.5C9,14.8,8.8,15,8.5,15S8,14.8,8,14.5S8.2,14,8.5,14S9,14.2,9,14.5z"/>
<path fill="#010202" d="M9,16.5C9,16.8,8.8,17,8.5,17S8,16.8,8,16.5S8.2,16,8.5,16S9,16.2,9,16.5z"/>
<path fill="#010202" d="M11,3.5C11,3.8,10.8,4,10.5,4S10,3.8,10,3.5S10.2,3,10.5,3S11,3.2,11,3.5z"/>
<path fill="#010202" d="M11,5.5C11,5.8,10.8,6,10.5,6S10,5.8,10,5.5S10.2,5,10.5,5S11,5.2,11,5.5z"/>
<path fill="#010202" d="M11,7.5C11,7.8,10.8,8,10.5,8S10,7.8,10,7.5S10.2,7,10.5,7S11,7.2,11,7.5z"/>
<path fill="#010202" d="M11,9.5c0,0.3-0.2,0.5-0.5,0.5S10,9.8,10,9.5S10.2,9,10.5,9S11,9.2,11,9.5z"/>
<path fill="#010202" d="M11,11.5c0,0.3-0.2,0.5-0.5,0.5S10,11.8,10,11.5s0.2-0.5,0.5-0.5S11,11.2,11,11.5z"/>
<path fill="#010202" d="M11,13.5c0,0.3-0.2,0.5-0.5,0.5S10,13.8,10,13.5s0.2-0.5,0.5-0.5S11,13.2,11,13.5z"/>
<path fill="#010202" d="M11,15.5c0,0.3-0.2,0.5-0.5,0.5S10,15.8,10,15.5s0.2-0.5,0.5-0.5S11,15.2,11,15.5z"/>
<path fill="#010202" d="M11,17.5c0,0.3-0.2,0.5-0.5,0.5S10,17.8,10,17.5s0.2-0.5,0.5-0.5S11,17.2,11,17.5z"/>
<path fill="#010202" d="M5,17.5C5,17.8,4.8,18,4.5,18S4,17.8,4,17.5S4.2,17,4.5,17S5,17.2,5,17.5z"/>
<path fill="#010202" d="M4,2.5C4,2.8,3.8,3,3.5,3S3,2.8,3,2.5S3.2,2,3.5,2S4,2.2,4,2.5z"/>
<path fill="#010202" d="M4,3.5C4,3.8,3.8,4,3.5,4S3,3.8,3,3.5S3.2,3,3.5,3S4,3.2,4,3.5z"/>
<path fill="#010202" d="M4,4.5C4,4.8,3.8,5,3.5,5S3,4.8,3,4.5S3.2,4,3.5,4S4,4.2,4,4.5z"/>
<path fill="#010202" d="M4,5.5C4,5.8,3.8,6,3.5,6S3,5.8,3,5.5S3.2,5,3.5,5S4,5.2,4,5.5z"/>
<path fill="#010202" d="M4,6.5C4,6.8,3.8,7,3.5,7S3,6.8,3,6.5S3.2,6,3.5,6S4,6.2,4,6.5z"/>
<path fill="#010202" d="M4,7.5C4,7.8,3.8,8,3.5,8S3,7.8,3,7.5S3.2,7,3.5,7S4,7.2,4,7.5z"/>
<path fill="#010202" d="M4,8.5C4,8.8,3.8,9,3.5,9S3,8.8,3,8.5S3.2,8,3.5,8S4,8.2,4,8.5z"/>
<path fill="#010202" d="M4,9.5C4,9.8,3.8,10,3.5,10S3,9.8,3,9.5S3.2,9,3.5,9S4,9.2,4,9.5z"/>
<path fill="#010202" d="M4,10.5C4,10.8,3.8,11,3.5,11S3,10.8,3,10.5C3,10.2,3.2,10,3.5,10S4,10.2,4,10.5z"/>
<path fill="#010202" d="M4,11.5C4,11.8,3.8,12,3.5,12S3,11.8,3,11.5S3.2,11,3.5,11S4,11.2,4,11.5z"/>
<path fill="#010202" d="M4,12.5C4,12.8,3.8,13,3.5,13S3,12.8,3,12.5S3.2,12,3.5,12S4,12.2,4,12.5z"/>
<path fill="#010202" d="M4,13.5C4,13.8,3.8,14,3.5,14S3,13.8,3,13.5S3.2,13,3.5,13S4,13.2,4,13.5z"/>
<path fill="#010202" d="M4,14.5C4,14.8,3.8,15,3.5,15S3,14.8,3,14.5S3.2,14,3.5,14S4,14.2,4,14.5z"/>
<path fill="#010202" d="M4,15.5C4,15.8,3.8,16,3.5,16S3,15.8,3,15.5S3.2,15,3.5,15S4,15.2,4,15.5z"/>
<path fill="#010202" d="M4,16.5C4,16.8,3.8,17,3.5,17S3,16.8,3,16.5S3.2,16,3.5,16S4,16.2,4,16.5z"/>
<path fill="#010202" d="M4,17.5C4,17.8,3.8,18,3.5,18S3,17.8,3,17.5S3.2,17,3.5,17S4,17.2,4,17.5z"/>
<path fill="#010202" d="M13,2.5C13,2.8,12.8,3,12.5,3S12,2.8,12,2.5S12.2,2,12.5,2S13,2.2,13,2.5z"/>
<path fill="#010202" d="M13,6.5C13,6.8,12.8,7,12.5,7S12,6.8,12,6.5S12.2,6,12.5,6S13,6.2,13,6.5z"/>
<path fill="#010202" d="M13,10.5c0,0.3-0.2,0.5-0.5,0.5S12,10.8,12,10.5c0-0.3,0.2-0.5,0.5-0.5S13,10.2,13,10.5z"/>
<path fill="#010202" d="M13,14.5c0,0.3-0.2,0.5-0.5,0.5S12,14.8,12,14.5s0.2-0.5,0.5-0.5S13,14.2,13,14.5z"/>
<path fill="#010202" d="M15,4.5C15,4.8,14.8,5,14.5,5S14,4.8,14,4.5S14.2,4,14.5,4S15,4.2,15,4.5z"/>
<path fill="#010202" d="M15,8.5C15,8.8,14.8,9,14.5,9S14,8.8,14,8.5S14.2,8,14.5,8S15,8.2,15,8.5z"/>
<path fill="#010202" d="M15,12.5c0,0.3-0.2,0.5-0.5,0.5S14,12.8,14,12.5s0.2-0.5,0.5-0.5S15,12.2,15,12.5z"/>
<path fill="#010202" d="M15,16.5c0,0.3-0.2,0.5-0.5,0.5S14,16.8,14,16.5s0.2-0.5,0.5-0.5S15,16.2,15,16.5z"/>
<path fill="#010202" d="M2.5,18C2.2,18,2,17.8,2,17.5v-15C2,2.2,2.2,2,2.5,2S3,2.2,3,2.5v15C3,17.8,2.8,18,2.5,18z"/>
</svg>
